X:210
T:The New-Rigged Ship
M:4/4
L:1/8
R:reel
D:Altan: Harvest Storm (in `Donal Agus Morag')
O:Shetland
K:Amix
|:fg|a2ab ageg|a2ab agef|g2gg fgag|f2d2 d2df|
a2ab ageg|a2ab agef|g2A2 efed|c2A2 A2:|
|:ed|cAcA B2ed|cAcA E2ed|cece B2ed|c2A2 A2:|
K:Ador
|:AB|cdec BcdB|ABAF GFE2|cdec BcdB|c2A2 A2:|
